X:1
T:Vincent Campbell's Mazurka #2
T:A Donegal mazurka
S:Frank Nordberg <frnordbe@online.no> 2004-1-8 abcusers
C:anon.
O:Ireland
A:Ulster
R:Mazurka
M:3/4
L:1/8
Q:1/4=190
K:G
D GA|:"G"B2BA GE|"G"DB, D2DD|"C"ECE2EE|"G"DB, DD GA|
"G"B2BA GE|"G"DB,D2DD|"D"E2F2D2|"G"G2GSD GA:|
|:"G"B2B2dB|"D7"cBc2DF|"D7"A2A2dc|"G"BG BD GA|
"G"B2B2dB|"D7"cBc2DF|"D7"A2Ad cA|[1"G"G2GSD GA:|[2"G"G2G|]
